X:1
T:军港之夜
C:zhiming@vmiis.com
M:2/4
L:1/8
Q:1/4=60
K:C
V:1
%%MIDI program 56
Ge ec|d/e/d2e|e2AG|c4|
eg ge|ag2e|e2e/d/c|d4|
e2BG|A/B/ A2c|Be eB|A/B/A3|
Be eB|BA/B/A2|dA/c/ BA|G4|
eg ge|ag/a/g2|e/ge/ ce/e/|g4|
eg ge|ed/e/d2|BA/B/ AG|e4|
eg ge|ag/a/g2|e/ge/ ce|g4|
eg ge/e/|ed/e/d2|BA/B/ AG|c4|